X:1
T:A Funny Story
T:For Children, Book 2,
T:26. Little Scherzo
T:Béla Bartók Revised and Arranged by the Composer, January 1945 
T:For Children Nr 26, Sz 42 
T:Book 2 (after Slovakian Folksongs)
T:Oli 2020
C:Bartók, Béla
Z:Oli 2020
%%score { 1 | ( 2 3 ) }
L:1/8
Q:1/4=116
M:3/8
K:C
V:1 treble nm="Piano"
V:2 treble 
V:3 treble 
V:1
"^Allegretto"!p!"_non legato, poco leggiero" !5!gfe | dde | !>!c !2!A2 | G3 | gfe | dde | %6
 !>!c !3!A2 | !2!G3 | !1!ABc |!<(! dde | !>!c B2!<)! |!>(! A3 | A!>)!Bc | dde |!<(! !>!c !1!A2 | %15
 !2!G3- | G3!<)! | z3 | z3 | z3 |!p! gfe | dde | !2!c !1!A2 | !2!G3 | gfe | dde | c A2 | %27
!>(! G3!>)! | AB"_poco cresc."c | dde | c B2 | A3 | ABc | dde | c A2 |"_dim." G3 | z3 | z3 | z3 | %39
 z3 |] %40
V:2
 z2 z | (A2 B | G3) | F3 | z2 z | (F2 G) | (E2 ^F) |[K:bass] (C2 B,) | z2 z | A,3- | (A,2 B, | %11
 D2 !2!^C | =C2) z | (G,3- | G,2 ^F,) | (C2 B,) | (F2 E) | z2!ped! (!5!C,, | %18
!>(! F2!ped-up!!>)! E) | z2 !tenuto!C,, | z2!ped! (C,, | G,2 F,)!ped-up! | z2!ped! C,, | %23
 (E,2!ped-up! D,) | z2!ped! C,, | (A,2!ped-up! B,) | z2!ped! (G,, | %27
 !1
4
![_B,E]2!ped-up! !3!!2![=B,D]) | z2!ped! (G,, | A,2!ped-up! ^G,) | z2!ped! (E,, | %31
 D2!ped-up! ^C) | z2!ped! (D,, | G,2!ped-up! ^F,) | z2 (G,, | C2 B,) | z2"^m.d." (!5!C,, | %37
 !5
2
1
!F2 E) | z2!pp! (!5!C,, | !5
2
1
!F2 E) |] %40
V:3
 x3 | ((!2
4
!F3 | !3!F2) E) | (!2
3
!E2 D) | x3 | !2
5
!C3- | C3 |[K:bass] !1
4
!G,3 | x3 | %9
 !3
4
!F,3- | F,3 | !1
5
!E,3- | !1!E,2 x | !2
5
!D,3- | D,3 | !1
4
!G,3 | !1
4
!C3 | x3 | %18
 !1
4
!C3 | x3 | x3 | !1
2
5
![C,A,]3 | x3 | !1
3
5
![C,B,]3 | x3 | !2
3
5
![C,F,]3 | x3 | x3 | %28
 x3 | !1
3
!F,3 | x3 | !1
4
!A,3 | x3 | !1
2
5
![D,C]3 | x3 | !1
2
5
![G,F]3 | x3 | [G,C]3 | x3 | %39
 [G,C]3 |] %40

